X: 73
T:Go to the Devil and Shake Yourself
% Nottingham Music Database
S:EF
M:6/8
K:D
P:A
A|"D"Add "G"dcB|"D"ABA AFA|"D"Add "A/c+"d2e|"Bm"fdB "A7"B2A|
"D"Add "G"dcB|"D"ABA AFA|"D"dfd "A7"ege|"D"fdd "A7"d2:|
P:B
f/2g/2|"D"afd dcd|"G"BGG G2g/2a/2|"Em"bge "E7"efe|"A7"cAA A2A|
"D"Add "G"dcB|"D"ABA AFA|"D"dfd "A7"ege|"D"fdd d2:|<end>
<start>
